X:1
T:Nations, Clap Your Hands
T:Tune: Louis Bourgeois, 1551; harm. Claude Goudimel, 1564 Text under copyright; for copyrighted material see Psalter Hymnal 47
T:55 55 55 D GENEVAN 47 www.hymnary.org/text/nations_clap_your_hands
T:Nations, Clap Your Hands
T:This music is in the public domain. You may freely use this score for personal and congregational worship. If you reproduce the score, please credit Hymnary.org as the source. 
T:This music is in the public domain. You may freely use this score for personal and congregational worship. If you reproduce the score, please credit Hymnary.org as the source. 
T:This music is in the public domain. You may freely use this score for personal and congregational worship. If you reproduce the score, please credit Hymnary.org as the source. 
Z:This music is in the public domain. You may freely use this score for personal and congregational worship. If you reproduce the score, please credit Hymnary.org as the source.
%%score ( 1 2 ) ( 3 4 )
L:1/8
M:16/4
K:D
V:1 treble nm="SOPRANO ALTO" snm="S. A."
V:2 treble 
V:3 bass nm="TENOR BASS" snm="T. B."
V:4 bass 
V:1
 A4 F4 D2 E2 F2 G4 F2 E2 E2 D8 | A4 A4 B2 c2 d2 A4 B2 G2 A2 F8 | D4 E4 F2 G2 F2 E4 D2 D2 C2 D8 |1 %3
 A4 B4 A2 G2 F2 F4 E2 F2 G2 f8 | %4
"^Page 2" d4 c4 B2 B2 A2 B4 A2 G2"^Nations, Clap Your Hands" F2 E8 || %5
 D4 F4 A2 G2 F2 E4 D2 D2 C2 D8 |] %6
V:2
 D4 A,4 B,2 C2 D2 D4 D2 B,2 C2 A,8 | D4 C4 E2 E2 F2 D4 D2 B,2 C2 A,8 | %2
 A,4 C4 D2 D2 D2 C4 B,2 B,2 A,2 A,8 |1 D4 D4 D2 B,2 D2 D4 E2 D2 D2 E8 | %4
 D4 E4 D2 E2 C2 D4 D2 D2 D2 C8 || A,4 D4 D2 D2 D2 C4 B,2 B,2 A,2 A,8 |] %6
V:3
 F,4 D,4 F,2 A,2 A,2 B,4 A,2 G,2 A,2 F,8 | F,4 F,4 G,2 A,2 A,2 F,4 F,2 E,2 E,2 D,8 | %2
 F,4 A,4 A,2 B,2 A,2 A,4 F,2 G,2 E,2 F,8 |1 F,4 G,4 F,2 G,2 B,2 B,4 A,2 A,2 B,2 C8 | %4
 A,4 A,4 F,2 G,2 F,2 F,4 F,2 B,2 A,2 A,8 || F,4 B,4 A,2 B,2 A,2 A,4 F,2 G,2 E,2 F,8 |] %6
V:4
 D,4 D,4 B,,2 A,,2 D,2 G,,4 D,2 E,2 A,,2 D,8 | D,4 F,4 E,2 A,2 D,2 D,4 B,,2 E,2 A,,2 D,8 | %2
 D,4 A,,4 D,2 G,,2 D,2 A,,4 B,,2 G,,2 A,,2 D,8 |1 D,4 G,,4 D,2 E,2 B,,2 B,,4 C,2 D,2 B,,2 A,,8 | %4
 F,,4 A,,4 B,,2 E,2 F,2 D,4 F,2 G,,2 D,2 A,,8 || D,4 B,,4 F,,2 G,,2 D,2 A,,4 B,,2 G,,2 A,,2 D,8 |] %6

